flaticon/emoticons/dead-6.svg

<svg xmlns="http://www.w3.org/2000/svg" width="32" height="32" viewBox="0 0 24 24">
    <path d="M 12 0 C 6.054688 0 1.21875 4.835938 1.21875 10.78125 L 1.21875 20.746094 C 1.21875 21.867188 2.132812 22.78125 3.253906 22.78125 L 5.917969 22.78125 C 5.9375 22.789062 5.957031 22.796875 5.976562 22.804688 C 7.402344 23.476562 9.121094 23.878906 11.078125 23.976562 C 11.121094 23.976562 11.164062 23.980469 11.210938 23.980469 C 11.46875 23.992188 11.730469 24 12 24 C 12.269531 24 12.53125 23.992188 12.792969 23.980469 C 12.835938 23.980469 12.878906 23.976562 12.921875 23.976562 C 14.878906 23.878906 16.597656 23.476562 18.023438 22.804688 C 18.042969 22.796875 18.0625 22.789062 18.082031 22.777344 L 20.746094 22.777344 C 21.867188 22.777344 22.78125 21.867188 22.78125 20.746094 L 22.78125 10.78125 C 22.78125 4.835938 17.945312 0 12 0 Z M 2.035156 10.78125 C 2.035156 5.285156 6.503906 0.8125 12 0.8125 C 17.496094 0.8125 21.964844 5.285156 21.964844 10.78125 L 21.964844 12.164062 C 21.671875 12.191406 21.40625 12.203125 21.152344 12.203125 C 16.921875 12.203125 13.191406 9.21875 11.875 4.777344 L 11.785156 4.472656 L 11.464844 4.488281 C 7.175781 4.699219 3.578125 7.390625 2.035156 11.136719 Z M 17.894531 21.964844 L 17.8125 22.007812 C 16.660156 22.566406 15.289062 22.929688 13.777344 23.089844 C 13.667969 23.101562 13.558594 23.113281 13.445312 23.125 C 13.285156 23.136719 13.125 23.148438 12.960938 23.15625 C 12.648438 23.175781 12.328125 23.1875 12 23.1875 C 11.671875 23.1875 11.351562 23.175781 11.039062 23.15625 C 10.875 23.148438 10.714844 23.136719 10.554688 23.121094 C 10.441406 23.113281 10.332031 23.101562 10.222656 23.089844 C 8.710938 22.929688 7.339844 22.566406 6.1875 22.007812 L 6.105469 21.964844 L 6.066406 21.964844 C 3.476562 20.65625 2.035156 18.34375 2.035156 15.253906 C 2.035156 10.039062 6.03125 5.734375 11.191406 5.320312 C 12.691406 9.9375 16.65625 13.015625 21.152344 13.015625 C 21.332031 13.015625 21.515625 13.011719 21.707031 13 C 21.878906 13.738281 21.964844 14.496094 21.964844 15.253906 C 21.964844 18.34375 20.523438 20.65625 17.933594 21.964844 Z M 3.253906 21.964844 C 2.582031 21.964844 2.035156 21.417969 2.035156 20.746094 L 2.035156 19.027344 C 2.597656 20.195312 3.441406 21.1875 4.535156 21.964844 Z M 21.964844 20.746094 C 21.964844 21.417969 21.417969 21.964844 20.746094 21.964844 L 19.464844 21.964844 C 20.558594 21.1875 21.402344 20.195312 21.964844 19.027344 Z M 21.964844 20.746094"/>
    <path d="M9.066406 13.304688C9.148438 13.382812 9.25 13.421875 9.355469 13.421875 9.460938 13.421875 9.5625 13.382812 9.644531 13.304688 9.800781 13.144531 9.800781 12.886719 9.644531 12.730469L8.207031 11.289062 9.644531 9.851562C9.800781 9.695312 9.800781 9.4375 9.644531 9.277344 9.484375 9.117188 9.226562 9.117188 9.066406 9.277344L7.628906 10.714844 6.191406 9.277344C6.03125 9.117188 5.777344 9.117188 5.617188 9.277344 5.457031 9.4375 5.457031 9.695312 5.617188 9.851562L7.054688 11.289062 5.617188 12.730469C5.457031 12.886719 5.457031 13.144531 5.617188 13.304688 5.695312 13.382812 5.800781 13.421875 5.90625 13.421875 6.007812 13.421875 6.113281 13.382812 6.191406 13.304688L7.628906 11.867188zM16.269531 16.269531L15.863281 16.269531C15.863281 16.269531 15.859375 16.269531 15.859375 16.269531L7.320312 16.269531C7.097656 16.269531 6.914062 16.453125 6.914062 16.679688 6.914062 16.902344 7.097656 17.085938 7.320312 17.085938L11.796875 17.085938 11.796875 19.851562C11.796875 20.972656 12.710938 21.886719 13.832031 21.886719L14.238281 21.886719C15.359375 21.886719 16.269531 20.972656 16.269531 19.851562L16.269531 17.085938C16.496094 17.085938 16.679688 16.902344 16.679688 16.679688 16.679688 16.453125 16.496094 16.269531 16.269531 16.269531zM15.457031 19.851562C15.457031 20.523438 14.910156 21.070312 14.238281 21.070312L13.832031 21.070312C13.15625 21.070312 12.609375 20.523438 12.609375 19.851562L12.609375 17.085938 13.113281 17.085938C13.257812 17.085938 13.414062 17.085938 13.574219 17.085938 13.617188 17.382812 13.640625 17.988281 13.640625 18.894531L13.640625 18.960938C13.640625 19.183594 13.824219 19.367188 14.046875 19.367188 14.273438 19.367188 14.453125 19.183594 14.453125 18.960938L14.453125 18.894531C14.453125 18.527344 14.453125 17.972656 14.425781 17.496094 14.417969 17.363281 14.410156 17.222656 14.394531 17.089844 14.789062 17.089844 15.164062 17.089844 15.457031 17.085938zM15.457031 19.851562"/>
</svg>

<svg xmlns="http://www.w3.org/2000/svg" width="32" height="32" viewBox="0 0 24 24">
    <path d="M12 0C6.055 0 1.219 4.836 1.219 10.781v9.965c0 1.121.914 2.035 2.035 2.035h2.664l.059.024c1.425.672 3.144 1.074 5.101 1.172.043 0 .086.003.133.003.258.012.52.02.789.02.27 0 .531-.008.793-.02l.129-.003c1.957-.098 3.676-.5 5.101-1.172.02-.008.04-.016.059-.028h2.664c1.121 0 2.035-.91 2.035-2.03V10.78C22.781 4.836 17.945 0 12 0zM2.035 10.781C2.035 5.285 6.504.812 12 .812c5.496 0 9.965 4.473 9.965 9.97v1.382c-.293.027-.559.04-.813.04-4.23 0-7.96-2.985-9.277-7.427l-.09-.304-.32.015a10.76 10.76 0 0 0-9.43 6.649zm15.86 11.184l-.082.043c-1.153.558-2.524.922-4.036 1.082l-.332.035c-.16.012-.32.023-.484.031a15.386 15.386 0 0 1-2.406-.035c-.114-.008-.223-.02-.332-.031-1.512-.16-2.883-.524-4.036-1.082l-.082-.043h-.039c-2.59-1.309-4.03-3.621-4.03-6.711A9.953 9.953 0 0 1 11.19 5.32c1.5 4.617 5.465 7.696 9.961 7.696.18 0 .364-.004.555-.016a9.95 9.95 0 0 1 .258 2.254c0 3.09-1.442 5.402-4.031 6.71zm-14.641 0a1.22 1.22 0 0 1-1.219-1.219v-1.719a7.663 7.663 0 0 0 2.5 2.938zm18.71-1.219a1.22 1.22 0 0 1-1.218 1.219h-1.281a7.663 7.663 0 0 0 2.5-2.938zm0 0"/>
    <path d="M9.066 13.305a.414.414 0 0 0 .579 0 .41.41 0 0 0 0-.575l-1.438-1.44 1.438-1.438a.408.408 0 0 0-.578-.574l-1.438 1.437L6.19 9.277a.403.403 0 0 0-.574 0 .403.403 0 0 0 0 .575l1.438 1.437-1.438 1.441a.403.403 0 0 0 .29.692c.1 0 .206-.04.284-.117l1.438-1.438zm0 0M16.27 16.27h-.407H7.32a.408.408 0 0 0 0 .816h4.477v2.766c0 1.12.914 2.035 2.035 2.035h.406a2.036 2.036 0 0 0 2.032-2.035v-2.766a.41.41 0 0 0 .41-.406.41.41 0 0 0-.41-.41zm-.813 3.582a1.22 1.22 0 0 1-1.219 1.218h-.406a1.221 1.221 0 0 1-1.223-1.218v-2.766H13.574c.043.297.067.902.067 1.809v.066a.406.406 0 1 0 .813 0v-.066c0-.368 0-.922-.028-1.399-.008-.133-.016-.273-.031-.406.394 0 .77 0 1.062-.004zm0 0"/>
</svg>
